Sources/FrostedUI/Resources/Icons.xcassets/globeInSquare16.imageset/globe-in-square-16.svg

<svg width="16" height="16" viewBox="0 0 16 16" fill="none" xmlns="http://www.w3.org/2000/svg" data-fui-icon="true">
  <g clip-path="url(#clip0_1679_665)">
    <path
      d="M13.2002 0.5C14.5807 0.500198 15.7002 1.61941 15.7002 3V13C15.7002 14.3806 14.5807 15.4998 13.2002 15.5H2.7998C1.41921 15.4999 0.299805 14.3806 0.299805 13V3C0.299805 1.61937 1.41921 0.500132 2.7998 0.5H13.2002ZM2.7998 2C2.24763 2.00013 1.7998 2.4478 1.7998 3V13C1.7998 13.5522 2.24763 13.9999 2.7998 14H13.2002L13.3018 13.9951C13.7724 13.9475 14.1464 13.5731 14.1943 13.1025L14.2002 13V3C14.2002 2.48212 13.8062 2.05594 13.3018 2.00488L13.2002 2H2.7998ZM8 3.25C10.6234 3.25 12.75 5.37665 12.75 8C12.75 10.6234 10.6234 12.75 8 12.75C5.37876 12.75 3.25341 10.6263 3.25 8.00586V7.99414C3.25341 5.3737 5.37876 3.25001 8 3.25ZM7.27344 8.75C7.29458 9.07853 7.32927 9.38531 7.375 9.66016C7.5094 10.4676 7.73931 11 8 11C8.26069 11 8.4906 10.4676 8.625 9.66016C8.67073 9.38531 8.70542 9.07853 8.72656 8.75H7.27344ZM4.83691 8.75C5.01359 9.49796 5.44888 10.1459 6.04297 10.5947C6.03301 10.5579 6.02365 10.5213 6.01465 10.4854C5.8895 9.98476 5.80658 9.38748 5.77051 8.75H4.83691ZM10.2295 8.75C10.1934 9.38748 10.1105 9.98476 9.98535 10.4854C9.97635 10.5213 9.96699 10.5579 9.95703 10.5947C10.5511 10.1459 10.9864 9.49797 11.1631 8.75H10.2295ZM6.04297 5.40527C5.44888 5.85407 5.01359 6.50204 4.83691 7.25H5.77051C5.80658 6.61252 5.8895 6.01524 6.01465 5.51465C6.02365 5.47865 6.03301 5.44214 6.04297 5.40527ZM8 5C7.73931 5 7.5094 5.53241 7.375 6.33984C7.32927 6.61469 7.29458 6.92147 7.27344 7.25H8.72656C8.70542 6.92147 8.67073 6.61469 8.625 6.33984C8.4906 5.53241 8.26069 5 8 5ZM9.98535 5.51465C10.1105 6.01524 10.1934 6.61252 10.2295 7.25H11.1631C10.9864 6.50203 10.5511 5.85407 9.95703 5.40527C9.96699 5.44214 9.97635 5.47865 9.98535 5.51465Z"
      fill="currentColor"
    />
  </g>
  <defs>
    <clipPath id="clip0_1679_665"><path fill="currentColor" d="M0 0H16V16H0z" /></clipPath>
  </defs>
</svg>

<svg xmlns="http://www.w3.org/2000/svg" width="16" height="16" fill="none" data-fui-icon="true" viewBox="0 0 16 16"><g clip-path="url(#a)"><path fill="currentColor" d="M13.2.5A2.5 2.5 0 0 1 15.7 3v10a2.5 2.5 0 0 1-2.5 2.5H2.8A2.5 2.5 0 0 1 .3 13V3A2.5 2.5 0 0 1 2.8.5zM2.8 2a1 1 0 0 0-1 1v10a1 1 0 0 0 1 1h10.4l.102-.005a1 1 0 0 0 .892-.893L14.2 13V3a1 1 0 0 0-.898-.995L13.2 2zM8 3.25a4.75 4.75 0 1 1-4.75 4.756v-.012A4.75 4.75 0 0 1 8 3.25m-.727 5.5q.033.495.102.91c.134.808.364 1.34.625 1.34.26 0 .49-.532.625-1.34.046-.275.08-.581.102-.91zm-2.436 0a3.25 3.25 0 0 0 1.206 1.845l-.028-.11A9.5 9.5 0 0 1 5.77 8.75zm5.393 0a9.5 9.5 0 0 1-.273 1.845 3.25 3.25 0 0 0 1.206-1.845zM6.042 5.405A3.25 3.25 0 0 0 4.837 7.25h.934a9.5 9.5 0 0 1 .272-1.845M8 5c-.26 0-.49.532-.625 1.34-.046.275-.08.581-.102.91h1.454a9 9 0 0 0-.102-.91C8.491 5.532 8.261 5 8 5m1.985.515c.126.5.208 1.098.245 1.735h.933a3.25 3.25 0 0 0-1.206-1.845q.015.056.028.11"/></g><defs><clipPath id="a"><path fill="currentColor" d="M0 0h16v16H0z"/></clipPath></defs></svg>
